flaticon/technology/ipad-3.svg

<svg xmlns="http://www.w3.org/2000/svg" width="32" height="32" viewBox="0 0 24 24">
    <path d="M6.398438 6.398438C6.503906 6.398438 6.605469 6.359375 6.683594 6.28125L8.28125 4.683594C8.4375 4.527344 8.4375 4.273438 8.28125 4.117188 8.125 3.960938 7.875 3.960938 7.71875 4.117188L6.117188 5.71875C5.960938 5.875 5.960938 6.125 6.117188 6.28125 6.195312 6.359375 6.296875 6.398438 6.398438 6.398438zM6.398438 8.398438C6.503906 8.398438 6.605469 8.359375 6.683594 8.28125L7.484375 7.484375C7.640625 7.328125 7.640625 7.074219 7.484375 6.917969 7.328125 6.761719 7.074219 6.761719 6.917969 6.917969L6.117188 7.71875C5.960938 7.875 5.960938 8.125 6.117188 8.28125 6.195312 8.359375 6.296875 8.398438 6.398438 8.398438zM7.714844 6.117188C7.644531 6.191406 7.601562 6.296875 7.601562 6.398438 7.601562 6.507812 7.644531 6.609375 7.714844 6.683594 7.792969 6.761719 7.894531 6.800781 8 6.800781 8.105469 6.800781 8.207031 6.757812 8.285156 6.683594 8.355469 6.609375 8.398438 6.507812 8.398438 6.398438 8.398438 6.296875 8.355469 6.191406 8.285156 6.117188 8.132812 5.96875 7.871094 5.96875 7.714844 6.117188zM8.515625 5.882812C8.59375 5.960938 8.699219 6 8.800781 6 8.902344 6 9.003906 5.960938 9.082031 5.882812L10.28125 4.683594C10.4375 4.527344 10.4375 4.273438 10.28125 4.117188 10.125 3.960938 9.875 3.960938 9.71875 4.117188L8.515625 5.316406C8.359375 5.472656 8.359375 5.726562 8.515625 5.882812zM6.398438 10.398438C6.503906 10.398438 6.605469 10.359375 6.683594 10.28125L10.28125 6.683594C10.4375 6.527344 10.4375 6.273438 10.28125 6.117188 10.125 5.960938 9.875 5.960938 9.71875 6.117188L6.117188 9.71875C5.960938 9.875 5.960938 10.125 6.117188 10.28125 6.195312 10.359375 6.296875 10.398438 6.398438 10.398438zM10.515625 5.882812C10.589844 5.957031 10.691406 6 10.800781 6 10.902344 6 11.007812 5.957031 11.085938 5.882812 11.160156 5.808594 11.199219 5.703125 11.199219 5.601562 11.199219 5.496094 11.160156 5.390625 11.085938 5.316406 10.933594 5.167969 10.664062 5.167969 10.515625 5.316406 10.445312 5.390625 10.398438 5.496094 10.398438 5.601562 10.398438 5.703125 10.445312 5.808594 10.515625 5.882812zM11.601562 5.199219C11.703125 5.199219 11.804688 5.160156 11.882812 5.082031L12.28125 4.683594C12.4375 4.527344 12.4375 4.273438 12.28125 4.117188 12.125 3.960938 11.875 3.960938 11.71875 4.117188L11.316406 4.515625C11.160156 4.671875 11.160156 4.925781 11.316406 5.082031 11.394531 5.160156 11.496094 5.199219 11.601562 5.199219zM12.398438 1.199219L12 1.199219C11.777344 1.199219 11.601562 1.378906 11.601562 1.601562 11.601562 1.820312 11.777344 2 12 2L12.398438 2C12.621094 2 12.800781 1.820312 12.800781 1.601562 12.800781 1.378906 12.621094 1.199219 12.398438 1.199219zM12.398438 1.199219"/>
    <path d="M 19.242188 0 L 4.757812 0 C 3.898438 0 3.199219 0.710938 3.199219 1.585938 L 3.199219 22.414062 C 3.199219 23.289062 3.898438 24 4.757812 24 L 19.242188 24 C 20.101562 24 20.800781 23.289062 20.800781 22.414062 L 20.800781 1.585938 C 20.800781 0.710938 20.101562 0 19.242188 0 Z M 20 22.414062 C 20 22.847656 19.660156 23.199219 19.242188 23.199219 L 4.757812 23.199219 C 4.339844 23.199219 4 22.847656 4 22.414062 L 4 1.585938 C 4 1.152344 4.339844 0.800781 4.757812 0.800781 L 19.242188 0.800781 C 19.660156 0.800781 20 1.152344 20 1.585938 Z M 20 22.414062"/>
    <path d="M19.601562 2.398438L4.398438 2.398438 4.398438 20 19.601562 20zM18.800781 19.199219L5.199219 19.199219 5.199219 3.199219 18.800781 3.199219zM13.601562 21.601562C13.601562 20.71875 12.882812 20 12 20 11.117188 20 10.398438 20.71875 10.398438 21.601562 10.398438 22.480469 11.117188 23.199219 12 23.199219 12.882812 23.199219 13.601562 22.480469 13.601562 21.601562zM12 22.398438C11.558594 22.398438 11.199219 22.042969 11.199219 21.601562 11.199219 21.160156 11.558594 20.800781 12 20.800781 12.441406 20.800781 12.800781 21.160156 12.800781 21.601562 12.800781 22.042969 12.441406 22.398438 12 22.398438zM12 22.398438"/>
</svg>

<svg xmlns="http://www.w3.org/2000/svg" width="32" height="32" viewBox="0 0 24 24">
    <path d="M6.398 6.398c.106 0 .207-.039.286-.117L8.28 4.684a.4.4 0 0 0 0-.567.396.396 0 0 0-.562 0L6.117 5.72a.396.396 0 0 0 0 .562c.078.078.18.117.281.117zm0 0M6.398 8.398c.106 0 .207-.039.286-.117l.8-.797a.4.4 0 0 0-.566-.566l-.8.8a.396.396 0 0 0 0 .563c.077.078.179.117.28.117zm0 0M7.715 6.117a.42.42 0 0 0-.113.281c0 .11.043.211.113.286.078.078.18.117.285.117a.416.416 0 0 0 .285-.117.415.415 0 0 0 .113-.286.42.42 0 0 0-.113-.28.42.42 0 0 0-.57 0zm0 0M8.516 5.883A.405.405 0 0 0 8.8 6c.101 0 .203-.04.281-.117l1.2-1.2a.4.4 0 0 0 0-.566.396.396 0 0 0-.563 0l-1.203 1.2a.4.4 0 0 0 0 .566zm0 0M6.398 10.398c.106 0 .207-.039.286-.117l3.597-3.597a.4.4 0 0 0 0-.567.396.396 0 0 0-.562 0L6.117 9.72a.396.396 0 0 0 0 .562c.078.078.18.117.281.117zm0 0M10.516 5.883A.402.402 0 0 0 10.8 6a.423.423 0 0 0 .285-.117.402.402 0 0 0 .113-.281c0-.106-.039-.211-.113-.286a.42.42 0 0 0-.57 0 .426.426 0 0 0-.118.286c0 .101.047.207.118.28zm0 0M11.602 5.2c.101 0 .203-.04.28-.118l.4-.398a.4.4 0 0 0 0-.567.396.396 0 0 0-.563 0l-.403.399a.4.4 0 0 0 .286.683zm0 0M12.398 1.2H12a.398.398 0 0 0-.398.402c0 .218.175.398.398.398h.398a.401.401 0 1 0 0-.8zm0 0"/>
    <path d="M19.242 0H4.758c-.86 0-1.559.71-1.559 1.586v20.828C3.2 23.29 3.9 24 4.758 24h14.484c.86 0 1.559-.71 1.559-1.586V1.586C20.8.71 20.1 0 19.242 0zM20 22.414c0 .434-.34.785-.758.785H4.758A.772.772 0 0 1 4 22.414V1.586C4 1.152 4.34.8 4.758.8h14.484c.418 0 .758.351.758.785zm0 0"/>
    <path d="M19.602 2.398H4.398V20h15.204zM18.8 19.2H5.199v-16h13.602zm0 0M13.602 21.602c0-.883-.72-1.602-1.602-1.602-.883 0-1.602.719-1.602 1.602a1.603 1.603 0 0 0 3.203 0zM12 22.398a.799.799 0 1 1 0-1.597.799.799 0 0 1 0 1.598zm0 0"/>
</svg>
